_inc/systems/logos/advision.svg

<svg xmlns="http://www.w3.org/2000/svg" viewBox="0 0 3839 468.7"><path d="M2089.8 180.4c0-26-8.5-52.8-27.6-71-21.1-20.7-51.5-25.2-79.9-25.2h-92.9v300.3h43.8V245.3h.8l99 139.2h54.8l-84-112c9.7 0 20.3-2.4 29.2-5.7 38.9-13.8 56.8-45.8 56.8-86.4m-126.6 58.8h-30V124.4h46.3c34.9 0 66.5 17.9 66.5 56 0 47.9-43.9 58.8-82.8 58.8M223.6 384.5h53.6l60.5-88.5H440v88.5h43.8V84.2h-54zM439.9 141v114.8h-74.7L439.1 141zm1669.5 243.5h145.3v-40.2h-101.4V253h101.4v-40.1h-101.4v-88.5h101.4V84.2h-145.3zm-294.5-98.2c0 35.7-19.5 63.7-56.8 63.7s-56.8-28-56.8-63.7V84.2h-43.8v203.3c0 29.2 8.1 57.2 30.4 77.1 19.1 17 44.6 25.6 70.2 25.6s51.1-8.5 70.2-25.6c22.3-19.9 30.4-47.9 30.4-77.1V84.2h-43.8zm-341.3-161.9h57.6v260.1h43.9V124.4h57.6V84.2h-159.1zm-454.1-40.2h-19.9L838.9 321.6h-.8V84.2h-43.8v300.3h51.1l174.1-249.6v249.6h145.3v-40.2h-101.5V253h101.5v-40.1h-101.5v-88.5h101.5V84.2h-110zm-404.1 0H518v300.3h95.8c45 0 84.4-11 117.3-43.4 25.2-25.2 37.7-71 37.7-105.9 0-33.7-11.4-68.6-30.8-95.8-28.8-40.6-74.3-55.2-122.6-55.2m-1.2 260.1h-52.3V124.4H615c46.3 0 83.2 21.5 101 64.9 5.7 14.6 8.9 30.4 8.9 45.9.1 69.4-42.5 109.1-110.7 109.1M2642.9 84.2h43.8v300.3h-43.8zM1397.7 312.7h-.9l-146-228.5h-47.9v300.3h43.8V152.4h.8L1396 384.5h45.5V84.2h-43.8zm1112.5 16.2-85.6-244.7h-47.7l109.6 300.3h47.3l99-300.3h-45.2z" class="st2" style="fill:#fff"/><path d="M3599.3 136.5v-101h-141.2v103.1h-5.6l-16.7-26.1-49.2-77h-123.3v34.6l-18.3-11c-31.8-19.1-68.8-29.2-107-29.2-37.8 0-74.7 10.4-106.9 30.1l-18.4 11.3V35.5h-141.2v9.8l-16.4-6.2c-16.1-6.1-33.4-9.2-51.4-9.2s-35.3 3.3-51.6 9.8l-16.6 6.7V35.5H2552l-32.6 103.1h-24.1l-36.1-103.1h-398.4v13.9l-15.8-5c-18.3-5.9-39.4-8.8-62.7-8.8H1349v103h-5.6l-16.7-26.1-49.2-77H976l-72.2 103.1h-17V35.5H745.6v39.7L727.2 64c-31-18.9-68.6-28.5-111.8-28.5H404.1l-65.7 95.7-3.6 5.2h-134l-144.2 210h134l-13 18.9-46.5 67.8h171.8l56.9-83.2 3.6-5.3h27.9v88.5h222.6c44.3 0 81.5-9.2 113.5-28.2l18.2-10.8v39h125.2l62-88.8h38v88.8h324.6v-88.8h17.1l56.8 88.8h254.4v-66.4l21.1 23.5c3.3 3.7 6.9 7.3 10.6 10.6 27.4 24.5 63.9 38 102.7 38 22.9 0 44.9-4.7 65.4-13.9l17.1-7.7v16h141.2v-36.6l22 30.9 4 5.7h295.6v-88.8H2420l2.9 7.9 29.5 80.9H2569l1.7-5 23.6-71.5v76.6h141.2v-9.7l16.3 6.1c16.3 6.1 33.8 9.2 51.8 9.2s35.3-3 51.5-8.9l16.2-5.9v9.2h141.2v-35.7l18.4 11.3c32.1 19.7 69.1 30.1 106.9 30.1s74.8-10.4 106.9-30l18.4-11.2v35.6h141.2v-88.8h17.1l56.8 88.8H3599v-86.7h38.9l144.2-210h-182.8Zm32 192.9h-46.9v88.8h-97.7l-56.8-88.8h-40.2v88.8h-111.4v-55.9a190 190 0 0 1-140.2 61.5 189.7 189.7 0 0 1-140.2-61.8v56.1h-111.4v-22.8c-21.7 18-50.2 28.5-82.7 28.5-32.7 0-61.4-10.8-83.1-29.4v23.7h-111.4v-88.8h-21.7l-29.3 88.8h-95.4l-32.4-88.8h-141.9v88.8h-273l-48.6-68.4v68.4h-111.4v-33.2c-1.6 1.6-3.1 3.2-4.8 4.7-24.6 22-57.5 34.1-92.7 34.1-35.1 0-68.1-12.1-92.7-34.2-17.7-15.8-30-36.3-36.5-60.4h-20.1v88.8h-111.4v-88.8h-22.2v88.8h-97.7l-56.8-88.8h-40.2v88.8H985.7v-88.8H925l-62 88.8H760.5V359c-1.8 2.1-3.6 4.1-5.6 6-36.4 35.9-82.5 53.3-141.2 53.3H406v-88.5h-50.7L295 418.3H159.5l32.9-47.9 28.1-40.9h-134l120.7-175.9h134L412 50.4h203.5c62.7 0 112.6 21.7 145.1 62.8V50.4H872v103.1h40l69.8-103.1h287.6l65.9 103.1h28.7V50.4h371.2v103.1h46.1V50.4h201.1c39.7 0 70.4 8.6 93.4 26.1V50.4h212.9v103.1h77.7l-37.6-103.1h120l36.1 103.1h45.6l32.6-103.1h157.7v27.3c21.2-20.5 50.4-32.9 83.1-32.9 33 0 61.7 11.3 82.7 30.3V50.4H2998v56.1c34.8-38 84.8-61.8 140.2-61.8 56.1 0 105.7 23.2 140.2 60.7v-55h100.2l65.9 103.1h28.7V50.4h111.4v103.1H3752z" class="st2" style="fill:#fff"/><path d="M3506.8 312.7h-.8L3359.9 84.2H3312v300.3h43.8V152.4h.8l148.5 232.1h45.5V84.2h-43.8zm-743.3-153c0-21.9 18.3-41 40.2-41 26 0 42.2 17.4 42.2 43.4h43.8c0-50.7-36.1-83.6-86-83.6-45.9 0-84 34.9-84 81.6 0 58.4 37.3 72.2 84 90.1 25.2 9.7 48.3 17 48.3 49.1 0 29.2-18.3 50.7-48.3 50.7-31.7 0-48.7-25.2-48.7-54.4h-43.8c0 54.4 37.7 94.5 92.5 94.5 53.6 0 92.1-36.9 92.1-90.9 0-113.9-132.3-75.8-132.3-139.5" class="st2" style="fill:#fff"/><path d="M3138 14.9c39.2 0 77.2 10 110.4 28.9V20.6h146.4l4.4 6.9 44 68.8V20.6h171v100.9h196.5l-16.1 23.4-144.2 210-4.5 6.5h-31.8v86.7h-143.9l-4.4-6.9-46.4-72.6V448h-171v-23.9a220 220 0 0 1-110.4 29.6c-38.9 0-76.9-10.3-110.4-29.7v24h-171v-2.8c-16.8 5.6-34.5 8.5-52.8 8.5-18.5 0-36.4-3-53.3-8.8v3.1H2442l-3.6-9.8-28.8-79h-91.1V448h-492.6v-7.8c-21.3 9-44 13.5-67.5 13.5-42.5 0-82.5-14.8-112.6-41.8-2.3-2.1-4.6-4.2-6.8-6.5v42.5h-277.5l-4.4-6.9-46.4-72.6v79.4H955.9V359h-15.3l-57.5 82.4-4.5 6.4H730.7v-27.7c-33.4 18.7-71.7 27.8-116.8 27.8H376.3v-88.4h-5l-56 82-4.4 6.5H102.7l16.1-23.4 43.5-63.3h-134l16.1-23.4 144.2-210 4.4-6.5h134l64.9-94.5 4.5-6.5h219.2c44 0 82.7 9.5 115.2 28.1V20.6h171v94.9l62-88.6 4.5-6.4h317.4l4.4 6.9 44 68.8V20.6h648.2c23.3 0 44.7 2.8 63.5 8.4v-8.4h423.9l3.5 10 32.6 93.1h2.6l29.3-92.7 3.3-10.4h209.3v3.7c16.9-6.2 34.8-9.4 53.3-9.4 18.4 0 36.1 3 52.8 8.8v-3.1h171v24c33.7-19.4 71.7-29.7 110.6-29.7m0-14.9c-33 0-65.5 7-95.5 20.3V5.7h-194C2834 1.9 2819 0 2803.7 0q-22.5 0-43.8 5.7h-229.8l-3.3 10.4-3.3 10.4-17.1 53.9-19.2-54.8-3.5-10-3.5-10h-449.4V10a258 258 0 0 0-48.6-4.4h-663.1v39.6l-16.6-25.9-4.4-6.9-4.4-6.9H960.4L956 12l-4.5 6.4-34.9 49.9V5.7H715.8v19c-29.7-12.6-63.4-19-100.3-19H388.4l-4.4 6.5-4.5 6.5-60.4 88H185.2l-4.4 6.5-4.4 6.5-144.2 210L16 353 0 376.4h134l-27.4 40-16.1 23.4-16 23.3h244.3l4.4-6.5 4.4-6.5 33.8-49.5v62.5h252.4c38.2 0 71.8-6.2 102-18.9v18.9h170.6l4.4-6.4 4.5-6.4 45.7-65.5V463h384.2v-43.4l19 29.7 4.4 6.9 4.4 6.9h300.6v-25.8c30 20.4 66.4 31.5 104.5 31.5 18.1 0 35.7-2.5 52.6-7.4v1.7h522.4v-88.8h65.8l25.3 69.2 3.6 9.8 3.6 9.8h327c14.5 3.8 29.7 5.7 45.1 5.7 15.6 0 30.8-1.9 45.5-5.7h193.3v-14.6a235.3 235.3 0 0 0 191 .1v14.5h200.8v-43.4l19 29.7 4.4 6.9 4.4 6.9h167v-86.7h24.7l4.4-6.5 4.5-6.5 144.2-210L3823 130l16-23.3h-209.9V5.7h-200.8v39.6l-16.6-25.9-4.4-6.9-4.4-6.9h-169.5v14A239.5 239.5 0 0 0 3138 0" class="st2" style="fill:#fff"/><path d="M2920.2 84.2h43.8v300.3h-43.8zm217.8-5.7c-86.4 0-156.2 69-156.2 155.8 0 86 70.2 155.8 156.2 155.8 85.6 0 156.2-69.4 156.2-155 0-87.2-68.6-156.6-156.2-156.6m104.7 197.3c-17 45.9-55.2 74.3-104.7 74.3-46.3 0-83.2-24.8-101.9-67-6.5-15.4-10.6-32.1-10.6-48.7s4.1-32.9 10.6-47.9c18.3-42.6 55.2-67.8 101.9-67.8 65.3 0 112.4 53.2 112.4 116.9 0 13.8-2.9 27.6-7.7 40.2" class="st2" style="fill:#fff"/></svg>

<?xml version="1.0" encoding="utf-8"?>
<svg version="1.1" viewBox="0 0 3839 468.7" xmlns="http://www.w3.org/2000/svg">
  <path class="st2" d="M 2089.8 180.4 C 2089.8 154.4 2081.3 127.6 2062.2 109.4 C 2041.1 88.7 2010.7 84.2 1982.3 84.2 L 1889.4 84.2 L 1889.4 384.5 L 1933.2 384.5 L 1933.2 245.3 L 1934 245.3 L 2033 384.5 L 2087.8 384.5 L 2003.8 272.5 C 2013.5 272.5 2024.1 270.1 2033 266.8 C 2071.9 253 2089.8 221 2089.8 180.4 Z M 1963.2 239.2 L 1933.2 239.2 L 1933.2 124.4 L 1979.5 124.4 C 2014.4 124.4 2046 142.3 2046 180.4 C 2046 228.3 2002.1 239.2 1963.2 239.2 Z" style="fill: rgb(255, 255, 255);"/>
  <path class="st2" d="M 223.6 384.5 L 277.2 384.5 L 337.7 296 L 440 296 L 440 384.5 L 483.8 384.5 L 483.8 84.2 L 429.8 84.2 L 223.6 384.5 Z M 439.9 141 L 439.9 255.8 L 365.2 255.8 L 439.1 141 L 439.9 141 Z" style="fill: rgb(255, 255, 255);"/>
  <polygon class="st2" points="2109.4 384.5 2254.7 384.5 2254.7 344.3 2153.3 344.3 2153.3 253 2254.7 253 2254.7 212.9 2153.3 212.9 2153.3 124.4 2254.7 124.4 2254.7 84.2 2109.4 84.2" style="fill: rgb(255, 255, 255);"/>
  <path class="st2" d="M 1814.9 286.3 C 1814.9 322 1795.4 350 1758.1 350 C 1720.8 350 1701.3 322 1701.3 286.3 L 1701.3 84.2 L 1657.5 84.2 L 1657.5 287.5 C 1657.5 316.7 1665.6 344.7 1687.9 364.6 C 1707 381.6 1732.5 390.2 1758.1 390.2 C 1783.7 390.2 1809.2 381.7 1828.3 364.6 C 1850.6 344.7 1858.7 316.7 1858.7 287.5 L 1858.7 84.2 L 1814.9 84.2 L 1814.9 286.3 Z" style="fill: rgb(255, 255, 255);"/>
  <polygon class="st2" points="1473.6 124.4 1531.2 124.4 1531.2 384.5 1575.1 384.5 1575.1 124.4 1632.7 124.4 1632.7 84.2 1473.6 84.2" style="fill: rgb(255, 255, 255);"/>
  <polygon class="st2" points="1019.5 84.2 999.6 84.2 838.9 321.6 838.1 321.6 838.1 84.2 794.3 84.2 794.3 384.5 845.4 384.5 1019.5 134.9 1019.5 384.5 1164.8 384.5 1164.8 344.3 1063.3 344.3 1063.3 253 1164.8 253 1164.8 212.9 1063.3 212.9 1063.3 124.4 1164.8 124.4 1164.8 84.2 1054.8 84.2" style="fill: rgb(255, 255, 255);"/>
  <path class="st2" d="M 615.4 84.2 L 518 84.2 L 518 384.5 L 613.8 384.5 C 658.8 384.5 698.2 373.5 731.1 341.1 C 756.3 315.9 768.8 270.1 768.8 235.2 C 768.8 201.5 757.4 166.6 738 139.4 C 709.2 98.8 663.7 84.2 615.4 84.2 Z M 614.2 344.3 L 561.9 344.3 L 561.9 124.4 L 615 124.4 C 661.3 124.4 698.2 145.9 716 189.3 C 721.7 203.9 724.9 219.7 724.9 235.2 C 725 304.6 682.4 344.3 614.2 344.3 Z" style="fill: rgb(255, 255, 255);"/>
  <rect x="2642.9" y="84.2" class="st2" width="43.8" height="300.3" style="fill: rgb(255, 255, 255);"/>
  <polygon class="st2" points="1397.7 312.7 1396.8 312.7 1250.8 84.2 1202.9 84.2 1202.9 384.5 1246.7 384.5 1246.7 152.4 1247.5 152.4 1396 384.5 1441.5 384.5 1441.5 84.2 1397.7 84.2" style="fill: rgb(255, 255, 255);"/>
  <polygon class="st2" points="2510.2 328.9 2424.6 84.2 2376.9 84.2 2486.5 384.5 2533.8 384.5 2632.8 84.2 2587.6 84.2" style="fill: rgb(255, 255, 255);"/>
  <path class="st2" d="M 3599.3 136.5 L 3599.3 124.4 L 3599.3 35.5 L 3458.1 35.5 L 3458.1 106 L 3458.1 138.6 L 3452.5 138.6 L 3435.8 112.5 L 3386.6 35.5 L 3263.3 35.5 L 3263.3 48.7 L 3263.3 70.1 L 3245 59.1 C 3213.2 40 3176.2 29.9 3138 29.9 C 3100.2 29.9 3063.3 40.3 3031.1 60 L 3012.7 71.3 L 3012.7 49.6 L 3012.7 35.5 L 2871.5 35.5 L 2871.5 45.3 L 2855.1 39.1 C 2839 33 2821.7 29.9 2803.7 29.9 C 2785.7 29.9 2768.4 33.2 2752.1 39.7 L 2735.5 46.4 L 2735.5 35.5 L 2552 35.5 L 2519.4 138.6 L 2495.3 138.6 L 2459.2 35.5 L 2060.8 35.5 L 2060.8 49.4 L 2045 44.4 C 2026.7 38.5 2005.6 35.6 1982.3 35.6 L 1349 35.6 L 1349 106 L 1349 138.6 L 1343.4 138.6 L 1326.7 112.5 L 1277.5 35.5 L 976 35.5 L 903.8 138.6 L 886.8 138.6 L 886.8 35.5 L 745.6 35.5 L 745.6 53.7 L 745.6 75.2 L 727.2 64 C 696.2 45.1 658.6 35.5 615.4 35.5 L 404.1 35.5 L 338.4 131.2 L 334.8 136.4 L 328.4 136.4 L 200.8 136.4 L 56.6 346.4 L 167.6 346.4 L 190.6 346.4 L 177.6 365.3 L 131.1 433.1 L 302.9 433.1 L 359.8 349.9 L 363.4 344.6 L 369.8 344.6 L 379.2 344.6 L 391.3 344.6 L 391.3 356.7 L 391.3 433.1 L 613.9 433.1 C 658.2 433.1 695.4 423.9 727.4 404.9 L 745.6 394.1 L 745.6 415.3 L 745.6 433.1 L 870.8 433.1 L 932.8 344.3 L 970.8 344.3 L 970.8 433.1 L 1295.4 433.1 L 1295.4 344.3 L 1312.5 344.3 L 1369.3 433.1 L 1623.7 433.1 L 1623.7 398.3 L 1623.7 366.7 L 1644.8 390.2 C 1648.1 393.9 1651.7 397.5 1655.4 400.8 C 1682.8 425.3 1719.3 438.8 1758.1 438.8 C 1781 438.8 1803 434.1 1823.5 424.9 L 1840.6 417.2 L 1840.6 433.2 L 1981.8 433.2 L 1981.8 396.6 L 2003.8 427.5 L 2007.8 433.2 L 2303.4 433.2 L 2303.4 356.5 L 2303.4 344.4 L 2315.5 344.4 L 2411.5 344.4 L 2420 344.4 L 2422.9 352.3 L 2452.4 433.2 L 2569 433.2 L 2570.7 428.2 L 2594.3 356.7 L 2594.3 432 L 2594.3 433.3 L 2735.5 433.3 L 2735.5 423.6 L 2751.8 429.7 C 2768.1 435.8 2785.6 438.9 2803.6 438.9 C 2821.6 438.9 2838.9 435.9 2855.1 430 L 2871.3 424.1 L 2871.3 433.3 L 3012.5 433.3 L 3012.5 419.2 L 3012.5 397.6 L 3030.9 408.9 C 3063 428.6 3100 439 3137.8 439 C 3175.6 439 3212.6 428.6 3244.7 409 L 3263.1 397.8 L 3263.1 419.4 L 3263.1 433.4 L 3404.3 433.4 L 3404.3 344.6 L 3421.4 344.6 L 3478.2 433.4 L 3599 433.4 L 3599 358.8 L 3599 346.7 L 3611.1 346.7 L 3637.9 346.7 L 3782.1 136.7 L 3611.2 136.7 L 3599.3 136.7 Z M 3631.3 329.4 L 3584.4 329.4 L 3584.4 418.2 L 3486.7 418.2 L 3429.9 329.4 L 3389.7 329.4 L 3389.7 418.2 L 3278.3 418.2 L 3278.3 362.3 C 3243.5 400.1 3193.5 423.8 3138.1 423.8 C 3082.6 423.8 3032.6 399.9 2997.9 362 L 2997.9 418.1 L 2886.5 418.1 L 2886.5 395.3 C 2864.8 413.3 2836.3 423.8 2803.8 423.8 C 2771.1 423.8 2742.4 413 2720.7 394.4 L 2720.7 418.1 L 2609.3 418.1 L 2609.3 329.3 L 2587.6 329.3 L 2558.3 418.1 L 2462.9 418.1 L 2430.5 329.3 L 2288.6 329.3 L 2288.6 418.1 L 2155.4 418.1 L 2075.7 418.1 L 2015.6 418.1 L 1967 349.7 L 1967 418.1 L 1855.6 418.1 L 1855.6 384.9 C 1854 386.5 1852.5 388.1 1850.8 389.6 C 1826.2 411.6 1793.3 423.7 1758.1 423.7 C 1723 423.7 1690 411.6 1665.4 389.5 C 1647.7 373.7 1635.4 353.2 1628.9 329.1 L 1608.8 329.1 L 1608.8 417.9 L 1497.4 417.9 L 1497.4 329.1 L 1475.2 329.1 L 1475.2 417.9 L 1377.5 417.9 L 1320.7 329.1 L 1280.5 329.1 L 1280.5 417.9 L 1198.6 417.9 L 1169.1 417.9 L 985.7 417.9 L 985.7 329.1 L 925 329.1 L 863 417.9 L 760.5 417.9 L 760.5 359 C 758.7 361.1 756.9 363.1 754.9 365 C 718.5 400.9 672.4 418.3 613.7 418.3 L 517.4 418.3 L 484.1 418.3 L 406 418.3 L 406 329.8 L 355.3 329.8 L 295 418.3 L 159.5 418.3 L 192.4 370.4 L 220.5 329.5 L 86.5 329.5 L 207.2 153.6 L 341.2 153.6 L 412 50.4 L 484.3 50.4 L 517.6 50.4 L 615.5 50.4 C 678.2 50.4 728.1 72.1 760.6 113.2 L 760.6 50.4 L 872 50.4 L 872 153.5 L 912 153.5 L 981.8 50.4 L 1119.6 50.4 L 1169.2 50.4 L 1198.7 50.4 L 1269.4 50.4 L 1335.3 153.5 L 1364 153.5 L 1364 50.4 L 1440 50.4 L 1475.4 50.4 L 1623.8 50.4 L 1666.6 50.4 L 1735.2 50.4 L 1735.2 153.5 L 1781.3 153.5 L 1781.3 50.4 L 1855.7 50.4 L 1892.7 50.4 L 1982.4 50.4 C 2022.1 50.4 2052.8 59 2075.8 76.5 L 2075.8 50.4 L 2288.7 50.4 L 2288.7 153.5 L 2366.4 153.5 L 2328.8 50.4 L 2448.8 50.4 L 2484.9 153.5 L 2530.5 153.5 L 2563.1 50.4 L 2609.4 50.4 L 2679.8 50.4 L 2720.8 50.4 L 2720.8 77.7 C 2742 57.2 2771.2 44.8 2803.9 44.8 C 2836.9 44.8 2865.6 56.1 2886.6 75.1 L 2886.6 50.4 L 2998 50.4 L 2998 106.5 C 3032.8 68.5 3082.8 44.7 3138.2 44.7 C 3194.3 44.7 3243.9 67.9 3278.4 105.4 L 3278.4 50.4 L 3378.6 50.4 L 3444.5 153.5 L 3473.2 153.5 L 3473.2 50.4 L 3584.6 50.4 L 3584.6 153.5 L 3752 153.5 L 3631.3 329.4 Z" style="fill: rgb(255, 255, 255);"/>
  <polygon class="st2" points="3506.8 312.7 3506 312.7 3359.9 84.2 3312 84.2 3312 384.5 3355.8 384.5 3355.8 152.4 3356.6 152.4 3505.1 384.5 3550.6 384.5 3550.6 84.2 3506.8 84.2" style="fill: rgb(255, 255, 255);"/>
  <path class="st2" d="M 2763.5 159.7 C 2763.5 137.8 2781.8 118.7 2803.7 118.7 C 2829.7 118.7 2845.9 136.1 2845.9 162.1 L 2889.7 162.1 C 2889.7 111.4 2853.6 78.5 2803.7 78.5 C 2757.8 78.5 2719.7 113.4 2719.7 160.1 C 2719.7 218.5 2757 232.3 2803.7 250.2 C 2828.9 259.9 2852 267.2 2852 299.3 C 2852 328.5 2833.7 350 2803.7 350 C 2772 350 2755 324.8 2755 295.6 L 2711.2 295.6 C 2711.2 350 2748.9 390.1 2803.7 390.1 C 2857.3 390.1 2895.8 353.2 2895.8 299.2 C 2895.8 185.3 2763.5 223.4 2763.5 159.7 Z" style="fill: rgb(255, 255, 255);"/>
  <path class="st2" d="M 3138 14.9 C 3177.2 14.9 3215.2 24.9 3248.4 43.8 L 3248.4 35.6 L 3248.4 20.6 L 3263.3 20.6 L 3386.6 20.6 L 3394.8 20.6 L 3399.2 27.5 L 3443.2 96.3 L 3443.2 35.5 L 3443.2 20.6 L 3458.1 20.6 L 3599.3 20.6 L 3614.2 20.6 L 3614.2 35.5 L 3614.2 121.5 L 3782.3 121.5 L 3810.7 121.5 L 3794.6 144.9 L 3650.4 354.9 L 3645.9 361.4 L 3638 361.4 L 3614.1 361.4 L 3614.1 433.2 L 3614.1 448.1 L 3599.2 448.1 L 3478.4 448.1 L 3470.2 448.1 L 3465.8 441.2 L 3419.4 368.6 L 3419.4 433.1 L 3419.4 448 L 3404.5 448 L 3263.3 448 L 3248.4 448 L 3248.4 433.1 L 3248.4 424.1 C 3214.9 443.5 3176.9 453.7 3138 453.7 C 3099.1 453.7 3061.1 443.4 3027.6 424 L 3027.6 433.1 L 3027.6 448 L 3012.7 448 L 2871.5 448 L 2856.6 448 L 2856.6 445.2 C 2839.8 450.8 2822.1 453.7 2803.8 453.7 C 2785.3 453.7 2767.4 450.7 2750.5 444.9 L 2750.5 448 L 2735.6 448 L 2594.4 448 L 2580 448 L 2569 448 L 2452.4 448 L 2442 448 L 2438.4 438.2 L 2409.6 359.2 L 2318.5 359.2 L 2318.5 433.1 L 2318.5 448 L 2303.6 448 L 1840.8 448 L 1825.9 448 L 1825.9 440.2 C 1804.6 449.2 1781.9 453.7 1758.4 453.7 C 1715.9 453.7 1675.9 438.9 1645.8 411.9 C 1643.5 409.8 1641.2 407.7 1639 405.4 L 1639 433 L 1639 447.9 L 1624.1 447.9 L 1369.7 447.9 L 1361.5 447.9 L 1357.1 441 L 1310.7 368.4 L 1310.7 432.9 L 1310.7 447.8 L 1295.8 447.8 L 970.8 447.8 L 955.9 447.8 L 955.9 432.9 L 955.9 359 L 940.6 359 L 883.1 441.4 L 878.6 447.8 L 870.8 447.8 L 745.6 447.8 L 730.7 447.8 L 730.7 432.9 L 730.7 420.1 C 697.3 438.8 659 447.9 613.9 447.9 L 391.2 447.9 L 376.3 447.9 L 376.3 433 L 376.3 359.5 L 371.3 359.5 L 315.3 441.5 L 310.9 448 L 303 448 L 131.1 448 L 102.7 448 L 118.8 424.6 L 162.3 361.3 L 56.7 361.3 L 28.3 361.3 L 44.4 337.9 L 188.6 127.9 L 193 121.4 L 200.9 121.4 L 327 121.4 L 391.9 26.9 L 396.4 20.4 L 404.3 20.4 L 615.6 20.4 C 659.6 20.4 698.3 29.9 730.8 48.5 L 730.8 35.5 L 730.8 20.6 L 745.7 20.6 L 886.9 20.6 L 901.8 20.6 L 901.8 35.5 L 901.8 115.5 L 963.8 26.9 L 968.3 20.5 L 976.1 20.5 L 1277.5 20.5 L 1285.7 20.5 L 1290.1 27.4 L 1334.1 96.2 L 1334.1 35.5 L 1334.1 20.6 L 1349 20.6 L 1982.3 20.6 C 2005.6 20.6 2027 23.4 2045.8 29 L 2045.8 20.6 L 2060.7 20.6 L 2459.1 20.6 L 2469.7 20.6 L 2473.2 30.6 L 2505.8 123.7 L 2508.4 123.7 L 2537.7 31 L 2541 20.6 L 2551.9 20.6 L 2735.4 20.6 L 2750.3 20.6 L 2750.3 24.3 C 2767.2 18.1 2785.1 14.9 2803.6 14.9 C 2822 14.9 2839.7 17.9 2856.4 23.7 L 2856.4 20.6 L 2871.3 20.6 L 3012.5 20.6 L 3027.4 20.6 L 3027.4 35.5 L 3027.4 44.6 C 3061.1 25.2 3099.1 14.9 3138 14.9 M 3138 0 C 3105 0 3072.5 7 3042.5 20.3 L 3042.5 5.7 L 3027.6 5.7 L 3012.7 5.7 L 2871.5 5.7 L 2856.6 5.7 L 2848.5 5.7 C 2834 1.9 2819 0 2803.7 0 C 2788.7 0 2774.1 1.9 2759.9 5.7 L 2750.4 5.7 L 2735.5 5.7 L 2552 5.7 L 2541 5.7 L 2530.1 5.7 L 2526.8 16.1 L 2523.5 26.5 L 2506.4 80.4 L 2487.2 25.6 L 2483.7 15.6 L 2480.2 5.6 L 2469.6 5.6 L 2459 5.6 L 2060.6 5.6 L 2045.7 5.6 L 2030.8 5.6 L 2030.8 10 C 2015.7 7.1 1999.4 5.6 1982.2 5.6 L 1348.9 5.6 L 1334 5.6 L 1319.1 5.6 L 1319.1 20.5 L 1319.1 35.4 L 1319.1 45.2 L 1302.5 19.3 L 1298.1 12.4 L 1293.7 5.5 L 1285.5 5.5 L 1277.3 5.5 L 976 5.5 L 968.2 5.5 L 960.4 5.5 L 956 12 L 951.5 18.4 L 916.6 68.3 L 916.6 35.5 L 916.6 20.6 L 916.6 5.7 L 901.7 5.7 L 886.8 5.7 L 745.6 5.7 L 730.7 5.7 L 715.8 5.7 L 715.8 20.6 L 715.8 24.7 C 686.1 12.1 652.4 5.7 615.5 5.7 L 404.1 5.7 L 396.2 5.7 L 388.4 5.7 L 384 12.2 L 379.5 18.7 L 319.1 106.7 L 200.8 106.7 L 193 106.7 L 185.2 106.7 L 180.8 113.2 L 176.4 119.7 L 32.2 329.7 L 16 353 L 0 376.4 L 28.3 376.4 L 56.7 376.4 L 134 376.4 L 106.6 416.4 L 90.5 439.8 L 74.5 463.1 L 102.8 463.1 L 131.2 463.1 L 303 463.1 L 310.9 463.1 L 318.8 463.1 L 323.2 456.6 L 327.6 450.1 L 361.4 400.6 L 361.4 433.3 L 361.4 448.2 L 361.4 463.1 L 376.3 463.1 L 391.2 463.1 L 613.8 463.1 C 652 463.1 685.6 456.9 715.8 444.2 L 715.8 448.2 L 715.8 463.1 L 730.7 463.1 L 745.6 463.1 L 870.8 463.1 L 878.6 463.1 L 886.4 463.1 L 890.8 456.7 L 895.3 450.3 L 941 384.8 L 941 433.2 L 941 448.1 L 941 463 L 955.9 463 L 970.8 463 L 1295.4 463 L 1310.3 463 L 1325.2 463 L 1325.2 448.1 L 1325.2 433.2 L 1325.2 419.6 L 1344.2 449.3 L 1348.6 456.2 L 1353 463.1 L 1361.2 463.1 L 1369.4 463.1 L 1623.8 463.1 L 1638.7 463.1 L 1653.6 463.1 L 1653.6 448.2 L 1653.6 437.3 C 1683.6 457.7 1720 468.8 1758.1 468.8 C 1776.2 468.8 1793.8 466.3 1810.7 461.4 L 1810.7 463.1 L 1825.6 463.1 L 1840.5 463.1 L 2303.3 463.1 L 2318.2 463.1 L 2333.1 463.1 L 2333.1 448.2 L 2333.1 433.3 L 2333.1 374.3 L 2398.9 374.3 L 2424.2 443.5 L 2427.8 453.3 L 2431.4 463.1 L 2441.8 463.1 L 2452.2 463.1 L 2569 463.1 L 2579.8 463.1 L 2594.2 463.1 L 2735.4 463.1 L 2750.3 463.1 L 2758.4 463.1 C 2772.9 466.9 2788.1 468.8 2803.5 468.8 C 2819.1 468.8 2834.3 466.9 2849 463.1 L 2856.4 463.1 L 2871.3 463.1 L 3012.5 463.1 L 3027.4 463.1 L 3042.3 463.1 L 3042.3 448.5 C 3072.2 461.8 3104.8 468.8 3137.8 468.8 C 3170.8 468.8 3203.3 461.9 3233.3 448.6 L 3233.3 463.1 L 3248.2 463.1 L 3263.1 463.1 L 3404.3 463.1 L 3419.2 463.1 L 3434.1 463.1 L 3434.1 448.2 L 3434.1 433.3 L 3434.1 419.7 L 3453.1 449.4 L 3457.5 456.3 L 3461.9 463.2 L 3470.1 463.2 L 3478.3 463.2 L 3599.1 463.2 L 3614 463.2 L 3628.9 463.2 L 3628.9 448.3 L 3628.9 433.4 L 3628.9 376.5 L 3637.9 376.5 L 3645.8 376.5 L 3653.6 376.5 L 3658 370 L 3662.5 363.5 L 3806.7 153.5 L 3823 130 L 3839 106.7 L 3810.7 106.7 L 3782.3 106.7 L 3629.1 106.7 L 3629.1 35.5 L 3629.1 20.6 L 3629.1 5.7 L 3614.2 5.7 L 3599.3 5.7 L 3458.1 5.7 L 3443.2 5.7 L 3428.3 5.7 L 3428.3 20.6 L 3428.3 35.5 L 3428.3 45.3 L 3411.7 19.4 L 3407.3 12.5 L 3402.9 5.6 L 3394.7 5.6 L 3386.5 5.6 L 3263.2 5.6 L 3248.3 5.6 L 3233.4 5.6 L 3233.4 19.6 C 3203.7 6.7 3171.2 0 3138 0 L 3138 0 Z" style="fill: rgb(255, 255, 255);"/>
  <rect x="2920.2" y="84.2" class="st2" width="43.8" height="300.3" style="fill: rgb(255, 255, 255);"/>
  <path class="st2" d="M 3138 78.5 C 3051.6 78.5 2981.8 147.5 2981.8 234.3 C 2981.8 320.3 3052 390.1 3138 390.1 C 3223.6 390.1 3294.2 320.7 3294.2 235.1 C 3294.2 147.9 3225.6 78.5 3138 78.5 Z M 3242.7 275.8 C 3225.7 321.7 3187.5 350.1 3138 350.1 C 3091.7 350.1 3054.8 325.3 3036.1 283.1 C 3029.6 267.7 3025.5 251 3025.5 234.4 C 3025.5 217.8 3029.6 201.5 3036.1 186.5 C 3054.4 143.9 3091.3 118.7 3138 118.7 C 3203.3 118.7 3250.4 171.9 3250.4 235.6 C 3250.4 249.4 3247.5 263.2 3242.7 275.8 Z" style="fill: rgb(255, 255, 255);"/>
</svg>
